!!!COM: Anon.
!!!OTL: Gonbe ga Tanemaku
!!!OTC: Japanese Popular Music: A Collection of The Popular Music of Japan Rendered in to the Staff notation.
!!!CNT: Nippon, Japanese
!!!TXO: Nippon, Japan
!!!OCY: Nippon, Japan
!!!ODT: <1892///
!!!PSR: S. Miki & Co.
!!!PSP: Osaka, Nippon
!!!PDT: 1892///
!!!PPE: Y Nagai & K. Kobatake
!!!PED: Revised Second Edition
!!!PPG: page 1
!! Moderato
**kern	**silbe
*ICstr	*Lnippon
*ICvox	*
*Ikoto	*
*Ivox	*
*clefG2	*
*k[]	*
*M2/4	*
=1-	=1-
{8e	Gon
8ff	.
8ee	be
8cc	ga
=2	=2
8b	ta
8b	ne
8a	ma
8b}	kya
=3	=3
{8e	ka
8ff	ra
8ee	su
8cc	ga
=4	=4
8b	ho
8b	ji
8a	ku-
8b}	-ru
=5	=5
{8e	san
8ff	-
8ee	do
8cc	ni
=6	=6
8b	ich-
8b	-i
8a	do
8b}	wa
=7	=7
{8e	o
8ff	wa
8ee	zu
8cc	ba
=8	=8
8b	na
8b	ru
8a	ma-
8b}	-i
=9	=9
{8a	jun
16b	be-
16b	-ra
8a	jun
16b	be-
16b	-ra
=10	=10
8a	gun-
16b	-be-
16b	-ra
8e	yo
8g	.
=11	=11
16g	.
16g	.
16g	.
16e	.
8c	.
8B;}	.
=12	=12
8e	mu
8ff	ko-
8ee	-u
8cc	no
=13	=13
8b	ko
8b	ya-
8a	-ma
8b	no
=14	=14
8e	ko
8ff	ma
8ee	tsu
8cc	no
=15	=15
8b	ko
8b	ka
8a	gi
8b	ni
=16	=16
8e	ju
8ff	?
8ee	ro-
8cc	-ku
=17	=17
8b	shi-
8b	-ma-
8a	-da
8b	ga
=18	=18
8e	di
8ff	ti
8ee	ki
8cc	te
=19	=19
8b	ko
8b	ma
8a	ne
8b	ku
=20	=20
8e	na
8ff	ni
8ee	ka
8cc	wa
=21	=21
8b	sa
8b	te
8a	o
8b	ki
=22	=22
8e	ju?
8ff	ka
8ee	zu
8cc	ba
=23	=23
8b	na
8b	ru
8a	ma-
8b}	-i
=24	=24
{8a	zun
16b	be-
16b	-ra
8a	jun
16b	be-
16b	-ra
=25	=25
8a	zun
16b	be-
16b	-ra
8e	yo
8g	.
=26	=26
16g	.
16g	.
16g	.
16e	.
8c	.
8B;}	.
==	==
*-	*-
!!!ENC: David Huron
!!!RDT: 2000/1/30
!!!EEV: Release 1.0
!!!ELF: 1/28
!!!YER: 2000/2/1
!!!YEM: Copyright David Huron, 2000
!!!YEN: United States of America
